X: 2
T:Billy of Tea, The
M:3/4
L:1/4
Q:80
K:D
F/2G/2|"D"A>BA|AFA|"G"dcB|"D"A2 A/2G/2|
FFF|"Bm"AGF|"Em"E<EE|"A"E2 F/2G/2|
"D"ABA|AF>A|
"G"dcB|"D"A2A/2G/2|
F<AD|"G"G<GF/2F/2|"A"EDC|"D"D3-|DzA,|
"D"DDD|DGF|"A"EA,A,|A,2E|
EEE|EFG|"D"GFF|F2D/2E/2|
FEF|"G"GFG|"D"A<GA|"G"B2A/2G/2|
"D"FAD|"Em"G<GF|"A"E<DC|"D"D3-|Dz:|
